images/logo.svg

<svg preserveAspectRatio="xMidYMid meet" xmlns="http://www.w3.org/2000/svg" zoomAndPan="magnify" viewBox="72.37 156.87 232.38 23.62"><path d="m2.3125-22.5 16.84375 17.640625v-16.71875h2.390625v22.546875l-16.828125-17.59375v16.625h-2.40625zm0 0" fill="#616320" transform="translate(70.078124 179.493358)"/><path d="m10.140625-22.609375 9.703125 22.609375h-2.671875l-2.546875-6.125h-9.21875l-2.59375 6.125h-2.640625zm-3.75 14.25h7.296875l-3.609375-8.640625zm-2.5-13.21875" fill="#616320" transform="translate(93.944868 179.493358)"/><path d="m4.578125-21.578125v9.234375l9.1875-9.234375h3.234375l-10.125 10.046875 10.46875 11.53125h-3.3125l-8.84375-9.90625-.609375.609375v9.296875h-2.40625v-21.578125zm0 0" fill="#616320" transform="translate(113.948292 179.493358)"/><path d="m4.640625-21.578125v21.578125h-2.40625v-21.578125zm0 0" fill="#616320" transform="translate(131.433399 179.493358)"/><path d="m13.171875-21.578125v2.234375h-5.265625v19.34375h-2.40625v-19.34375h-5.21875v-2.234375zm0 0" fill="#616320" transform="translate(138.272914 179.493358)"/><path d="m10.015625-12.34375 4.546875 5.8125 2.4375-2.828125 1.75 1.4375-2.75 3.203125 3.671875 4.71875h-3.046875l-2.3125-3.03125c-1.3125 1.199219-2.53125 2.070312-3.65625 2.609375-1.117188.53125-2.199219.796875-3.25.796875-1.125 0-2.167969-.257812-3.125-.765625-.949219-.519531-1.714844-1.238281-2.296875-2.15625-.585937-.914063-.875-1.945313-.875-3.09375 0-.9375.195313-1.785156.59375-2.546875.394531-.757812.921875-1.457031 1.578125-2.09375.65625-.644531 1.785156-1.484375 3.390625-2.515625-.636719-.84375-1.15625-1.617187-1.5625-2.328125-.398437-.71875-.59375-1.46875-.59375-2.25 0-1.3125.445313-2.398438 1.34375-3.265625.90625-.875 2.035156-1.3125 3.390625-1.3125 1.269531 0 2.347656.414063 3.234375 1.234375.894531.8125 1.34375 1.8125 1.34375 3 0 1.03125-.308594 1.953125-.921875 2.765625-.605469.8125-1.570312 1.683594-2.890625 2.609375zm-1.375-1.734375 1-.75c.78125-.570313 1.289063-1.078125 1.53125-1.515625.238281-.4375.359375-.894531.359375-1.375 0-.625-.230469-1.144531-.6875-1.5625-.460938-.425781-1.023438-.640625-1.6875-.640625-.625 0-1.171875.230469-1.640625.6875-.46875.460937-.703125 1.023437-.703125 1.6875 0 .625.253906 1.292969.765625 2zm4.234375 9.234375-4.796875-6.171875c-.730469.46875-1.433594.949219-2.109375 1.4375-.679688.492187-1.265625 1.058594-1.765625 1.703125-.492187.648438-.734375 1.371094-.734375 2.171875 0 1.023437.382812 1.929687 1.15625 2.71875.769531.792969 1.648438 1.1875 2.640625 1.1875.820313 0 1.660156-.234375 2.515625-.703125.863281-.46875 1.894531-1.25 3.09375-2.34375zm0 0" fill="#00687a" transform="translate(160.546868 179.493358)"/><g fill="#a8781d"><path d="m5.953125-21.578125c1.882813 0 3.3125.226563 4.28125.671875.976563.449219 1.769531 1.152344 2.375 2.109375.601563.949219.90625 2.023437.90625 3.21875 0 1.761719-.578125 3.226563-1.734375 4.390625-1.15625 1.15625-2.890625 1.734375-5.203125 1.734375h-2v9.453125h-2.40625v-21.578125zm-1.375 9.90625h1.296875c1.882812 0 3.226562-.320313 4.03125-.96875.800781-.65625 1.203125-1.632813 1.203125-2.9375 0-1.3125-.398437-2.265625-1.1875-2.859375-.792969-.601562-2.195313-.90625-4.203125-.90625h-1.140625zm0 0" transform="translate(189.257804 179.493358)"/><path d="m5.46875-21.578125c5.15625 0 7.734375 1.984375 7.734375 5.953125 0 1.65625-.484375 3.027344-1.453125 4.109375-.960938 1.074219-2.28125 1.6875-3.96875 1.84375l6.875 9.671875h-2.953125l-6.515625-9.46875h-.609375v9.46875h-2.40625v-21.578125zm-.890625 9.984375h1.0625c1.695313 0 2.976563-.3125 3.84375-.9375.875-.632812 1.3125-1.609375 1.3125-2.921875 0-1.4375-.429687-2.441406-1.28125-3.015625-.84375-.582031-2.070313-.875-3.671875-.875h-1.265625zm0 0" transform="translate(203.652262 179.493358)"/><path d="m4.640625-21.578125v21.578125h-2.40625v-21.578125zm0 0" transform="translate(219.162782 179.493358)"/><path d="m5.46875-21.578125c5.15625 0 7.734375 1.984375 7.734375 5.953125 0 1.65625-.484375 3.027344-1.453125 4.109375-.960938 1.074219-2.28125 1.6875-3.96875 1.84375l6.875 9.671875h-2.953125l-6.515625-9.46875h-.609375v9.46875h-2.40625v-21.578125zm-.890625 9.984375h1.0625c1.695313 0 2.976563-.3125 3.84375-.9375.875-.632812 1.3125-1.609375 1.3125-2.921875 0-1.4375-.429687-2.441406-1.28125-3.015625-.84375-.582031-2.070313-.875-3.671875-.875h-1.265625zm0 0" transform="translate(226.002297 179.493358)"/><path d="m1.09375-10.765625c0-1.976563.5-3.828125 1.5-5.546875s2.363281-3.085938 4.09375-4.109375c1.738281-1.019531 3.625-1.53125 5.65625-1.53125 2 0 3.863281.496094 5.59375 1.484375 1.726562.992188 3.101562 2.355469 4.125 4.09375 1.019531 1.742188 1.53125 3.609375 1.53125 5.609375 0 1.992187-.507812 3.84375-1.515625 5.5625-1 1.710937-2.367187 3.070313-4.09375 4.078125-1.71875 1-3.601563 1.5-5.640625 1.5-2.011719 0-3.886719-.492188-5.625-1.484375-1.730469-1-3.101562-2.359375-4.109375-4.078125-1.011719-1.726562-1.515625-3.585938-1.515625-5.578125zm11.21875-8.953125c-1.605469 0-3.085938.414062-4.4375 1.234375-1.355469.8125-2.421875 1.902344-3.203125 3.265625-.78125 1.367188-1.171875 2.839844-1.171875 4.421875 0 1.585937.394531 3.0625 1.1875 4.4375.800781 1.375 1.882812 2.46875 3.25 3.28125 1.363281.8125 2.832031 1.21875 4.40625 1.21875 1.582031 0 3.0625-.410156 4.4375-1.234375 1.382812-.820312 2.460938-1.914062 3.234375-3.28125.78125-1.375 1.171875-2.847656 1.171875-4.421875 0-1.601563-.398438-3.09375-1.1875-4.46875-.792969-1.382813-1.871094-2.472656-3.234375-3.265625-1.367187-.789062-2.851563-1.1875-4.453125-1.1875zm0 0" transform="translate(241.512818 179.493358)"/><path d="m6.734375-21.578125c1.976563 0 3.679687.304687 5.109375.90625 1.4375.59375 2.628906 1.402344 3.578125 2.421875.957031 1.023438 1.664063 2.171875 2.125 3.453125.457031 1.28125.6875 2.648437.6875 4.09375 0 1.855469-.429687 3.578125-1.28125 5.171875-.84375 1.585938-2.101563 2.902344-3.765625 3.953125-1.65625 1.054687-3.820312 1.578125-6.484375 1.578125h-4.53125v-21.578125zm.140625 19.34375c1.3125 0 2.5-.191406 3.5625-.578125 1.070312-.394531 2.019531-.984375 2.84375-1.765625.820312-.78125 1.453125-1.710937 1.890625-2.796875.4375-1.09375.65625-2.234375.65625-3.421875 0-1.5625-.351563-2.976563-1.046875-4.25-.699219-1.269531-1.695312-2.300781-2.984375-3.09375-1.28125-.800781-3.011719-1.203125-5.1875-1.203125h-2.03125v17.109375zm0 0" transform="translate(266.180842 179.493358)"/><path d="m10.140625-22.609375 9.703125 22.609375h-2.671875l-2.546875-6.125h-9.21875l-2.59375 6.125h-2.640625zm-3.75 14.25h7.296875l-3.609375-8.640625zm-2.5-13.21875" transform="translate(284.896245 179.493358)"/></g></svg>

<svg xmlns="http://www.w3.org/2000/svg" xmlns:xlink="http://www.w3.org/1999/xlink" width="500" zoomAndPan="magnify" viewBox="0 0 375 374.999991" height="500" preserveAspectRatio="xMidYMid meet" version="1.0"><defs><g/></defs><g fill="#616320" fill-opacity="1"><g transform="translate(70.078124, 179.493358)"><g><path d="M 2.3125 -22.5 L 19.15625 -4.859375 L 19.15625 -21.578125 L 21.546875 -21.578125 L 21.546875 0.96875 L 4.71875 -16.625 L 4.71875 0 L 2.3125 0 Z M 2.3125 -22.5 "/></g></g></g><g fill="#616320" fill-opacity="1"><g transform="translate(93.944868, 179.493358)"><g><path d="M 10.140625 -22.609375 L 19.84375 0 L 17.171875 0 L 14.625 -6.125 L 5.40625 -6.125 L 2.8125 0 L 0.171875 0 Z M 6.390625 -8.359375 L 13.6875 -8.359375 L 10.078125 -17 Z M 3.890625 -21.578125 Z M 3.890625 -21.578125 "/></g></g></g><g fill="#616320" fill-opacity="1"><g transform="translate(113.948292, 179.493358)"><g><path d="M 4.578125 -21.578125 L 4.578125 -12.34375 L 13.765625 -21.578125 L 17 -21.578125 L 6.875 -11.53125 L 17.34375 0 L 14.03125 0 L 5.1875 -9.90625 L 4.578125 -9.296875 L 4.578125 0 L 2.171875 0 L 2.171875 -21.578125 Z M 4.578125 -21.578125 "/></g></g></g><g fill="#616320" fill-opacity="1"><g transform="translate(131.433399, 179.493358)"><g><path d="M 4.640625 -21.578125 L 4.640625 0 L 2.234375 0 L 2.234375 -21.578125 Z M 4.640625 -21.578125 "/></g></g></g><g fill="#616320" fill-opacity="1"><g transform="translate(138.272914, 179.493358)"><g><path d="M 13.171875 -21.578125 L 13.171875 -19.34375 L 7.90625 -19.34375 L 7.90625 0 L 5.5 0 L 5.5 -19.34375 L 0.28125 -19.34375 L 0.28125 -21.578125 Z M 13.171875 -21.578125 "/></g></g></g><g fill="#616320" fill-opacity="1"><g transform="translate(151.722994, 179.493358)"><g/></g></g><g fill="#00687a" fill-opacity="1"><g transform="translate(160.546868, 179.493358)"><g><path d="M 10.015625 -12.34375 L 14.5625 -6.53125 L 17 -9.359375 L 18.75 -7.921875 L 16 -4.71875 L 19.671875 0 L 16.625 0 L 14.3125 -3.03125 C 13 -1.832031 11.78125 -0.960938 10.65625 -0.421875 C 9.539062 0.109375 8.457031 0.375 7.40625 0.375 C 6.28125 0.375 5.238281 0.117188 4.28125 -0.390625 C 3.332031 -0.910156 2.566406 -1.628906 1.984375 -2.546875 C 1.398438 -3.460938 1.109375 -4.492188 1.109375 -5.640625 C 1.109375 -6.578125 1.304688 -7.425781 1.703125 -8.1875 C 2.097656 -8.945312 2.625 -9.644531 3.28125 -10.28125 C 3.9375 -10.925781 5.066406 -11.765625 6.671875 -12.796875 C 6.035156 -13.640625 5.515625 -14.414062 5.109375 -15.125 C 4.710938 -15.84375 4.515625 -16.59375 4.515625 -17.375 C 4.515625 -18.6875 4.960938 -19.773438 5.859375 -20.640625 C 6.765625 -21.515625 7.894531 -21.953125 9.25 -21.953125 C 10.519531 -21.953125 11.597656 -21.539062 12.484375 -20.71875 C 13.378906 -19.90625 13.828125 -18.90625 13.828125 -17.71875 C 13.828125 -16.6875 13.519531 -15.765625 12.90625 -14.953125 C 12.300781 -14.140625 11.335938 -13.269531 10.015625 -12.34375 Z M 8.640625 -14.078125 L 9.640625 -14.828125 C 10.421875 -15.398438 10.929688 -15.90625 11.171875 -16.34375 C 11.410156 -16.78125 11.53125 -17.238281 11.53125 -17.71875 C 11.53125 -18.34375 11.300781 -18.863281 10.84375 -19.28125 C 10.382812 -19.707031 9.820312 -19.921875 9.15625 -19.921875 C 8.53125 -19.921875 7.984375 -19.691406 7.515625 -19.234375 C 7.046875 -18.773438 6.8125 -18.210938 6.8125 -17.546875 C 6.8125 -16.921875 7.066406 -16.253906 7.578125 -15.546875 Z M 12.875 -4.84375 L 8.078125 -11.015625 C 7.347656 -10.546875 6.644531 -10.066406 5.96875 -9.578125 C 5.289062 -9.085938 4.703125 -8.519531 4.203125 -7.875 C 3.710938 -7.226562 3.46875 -6.503906 3.46875 -5.703125 C 3.46875 -4.679688 3.851562 -3.773438 4.625 -2.984375 C 5.394531 -2.191406 6.273438 -1.796875 7.265625 -1.796875 C 8.085938 -1.796875 8.925781 -2.03125 9.78125 -2.5 C 10.644531 -2.96875 11.675781 -3.75 12.875 -4.84375 Z M 12.875 -4.84375 "/></g></g></g><g fill="#00687a" fill-opacity="1"><g transform="translate(180.435829, 179.493358)"><g/></g></g><g fill="#a8781d" fill-opacity="1"><g transform="translate(189.257804, 179.493358)"><g><path d="M 5.953125 -21.578125 C 7.835938 -21.578125 9.265625 -21.351562 10.234375 -20.90625 C 11.210938 -20.457031 12.003906 -19.753906 12.609375 -18.796875 C 13.210938 -17.847656 13.515625 -16.773438 13.515625 -15.578125 C 13.515625 -13.816406 12.9375 -12.351562 11.78125 -11.1875 C 10.625 -10.03125 8.890625 -9.453125 6.578125 -9.453125 L 4.578125 -9.453125 L 4.578125 0 L 2.171875 0 L 2.171875 -21.578125 Z M 4.578125 -11.671875 L 5.875 -11.671875 C 7.757812 -11.671875 9.101562 -11.992188 9.90625 -12.640625 C 10.707031 -13.296875 11.109375 -14.273438 11.109375 -15.578125 C 11.109375 -16.890625 10.710938 -17.84375 9.921875 -18.4375 C 9.128906 -19.039062 7.726562 -19.34375 5.71875 -19.34375 L 4.578125 -19.34375 Z M 4.578125 -11.671875 "/></g></g></g><g fill="#a8781d" fill-opacity="1"><g transform="translate(203.652262, 179.493358)"><g><path d="M 5.46875 -21.578125 C 10.625 -21.578125 13.203125 -19.59375 13.203125 -15.625 C 13.203125 -13.96875 12.71875 -12.597656 11.75 -11.515625 C 10.789062 -10.441406 9.46875 -9.828125 7.78125 -9.671875 L 14.65625 0 L 11.703125 0 L 5.1875 -9.46875 L 4.578125 -9.46875 L 4.578125 0 L 2.171875 0 L 2.171875 -21.578125 Z M 4.578125 -11.59375 L 5.640625 -11.59375 C 7.335938 -11.59375 8.617188 -11.90625 9.484375 -12.53125 C 10.359375 -13.164062 10.796875 -14.140625 10.796875 -15.453125 C 10.796875 -16.890625 10.367188 -17.894531 9.515625 -18.46875 C 8.671875 -19.050781 7.445312 -19.34375 5.84375 -19.34375 L 4.578125 -19.34375 Z M 4.578125 -11.59375 "/></g></g></g><g fill="#a8781d" fill-opacity="1"><g transform="translate(219.162782, 179.493358)"><g><path d="M 4.640625 -21.578125 L 4.640625 0 L 2.234375 0 L 2.234375 -21.578125 Z M 4.640625 -21.578125 "/></g></g></g><g fill="#a8781d" fill-opacity="1"><g transform="translate(226.002297, 179.493358)"><g><path d="M 5.46875 -21.578125 C 10.625 -21.578125 13.203125 -19.59375 13.203125 -15.625 C 13.203125 -13.96875 12.71875 -12.597656 11.75 -11.515625 C 10.789062 -10.441406 9.46875 -9.828125 7.78125 -9.671875 L 14.65625 0 L 11.703125 0 L 5.1875 -9.46875 L 4.578125 -9.46875 L 4.578125 0 L 2.171875 0 L 2.171875 -21.578125 Z M 4.578125 -11.59375 L 5.640625 -11.59375 C 7.335938 -11.59375 8.617188 -11.90625 9.484375 -12.53125 C 10.359375 -13.164062 10.796875 -14.140625 10.796875 -15.453125 C 10.796875 -16.890625 10.367188 -17.894531 9.515625 -18.46875 C 8.671875 -19.050781 7.445312 -19.34375 5.84375 -19.34375 L 4.578125 -19.34375 Z M 4.578125 -11.59375 "/></g></g></g><g fill="#a8781d" fill-opacity="1"><g transform="translate(241.512818, 179.493358)"><g><path d="M 1.09375 -10.765625 C 1.09375 -12.742188 1.59375 -14.59375 2.59375 -16.3125 C 3.59375 -18.03125 4.957031 -19.398438 6.6875 -20.421875 C 8.425781 -21.441406 10.3125 -21.953125 12.34375 -21.953125 C 14.34375 -21.953125 16.207031 -21.457031 17.9375 -20.46875 C 19.664062 -19.476562 21.039062 -18.113281 22.0625 -16.375 C 23.082031 -14.632812 23.59375 -12.765625 23.59375 -10.765625 C 23.59375 -8.773438 23.085938 -6.921875 22.078125 -5.203125 C 21.078125 -3.492188 19.710938 -2.132812 17.984375 -1.125 C 16.265625 -0.125 14.382812 0.375 12.34375 0.375 C 10.332031 0.375 8.457031 -0.117188 6.71875 -1.109375 C 4.988281 -2.109375 3.617188 -3.46875 2.609375 -5.1875 C 1.597656 -6.914062 1.09375 -8.773438 1.09375 -10.765625 Z M 12.3125 -19.71875 C 10.707031 -19.71875 9.226562 -19.304688 7.875 -18.484375 C 6.519531 -17.671875 5.453125 -16.582031 4.671875 -15.21875 C 3.890625 -13.851562 3.5 -12.378906 3.5 -10.796875 C 3.5 -9.210938 3.894531 -7.734375 4.6875 -6.359375 C 5.488281 -4.984375 6.570312 -3.890625 7.9375 -3.078125 C 9.300781 -2.265625 10.769531 -1.859375 12.34375 -1.859375 C 13.925781 -1.859375 15.40625 -2.269531 16.78125 -3.09375 C 18.164062 -3.914062 19.242188 -5.007812 20.015625 -6.375 C 20.796875 -7.75 21.1875 -9.222656 21.1875 -10.796875 C 21.1875 -12.398438 20.789062 -13.890625 20 -15.265625 C 19.207031 -16.648438 18.128906 -17.738281 16.765625 -18.53125 C 15.398438 -19.320312 13.914062 -19.71875 12.3125 -19.71875 Z M 12.3125 -19.71875 "/></g></g></g><g fill="#a8781d" fill-opacity="1"><g transform="translate(266.180842, 179.493358)"><g><path d="M 6.734375 -21.578125 C 8.710938 -21.578125 10.414062 -21.273438 11.84375 -20.671875 C 13.28125 -20.078125 14.472656 -19.269531 15.421875 -18.25 C 16.378906 -17.226562 17.085938 -16.078125 17.546875 -14.796875 C 18.003906 -13.515625 18.234375 -12.148438 18.234375 -10.703125 C 18.234375 -8.847656 17.804688 -7.125 16.953125 -5.53125 C 16.109375 -3.945312 14.851562 -2.628906 13.1875 -1.578125 C 11.53125 -0.523438 9.367188 0 6.703125 0 L 2.171875 0 L 2.171875 -21.578125 Z M 6.875 -2.234375 C 8.1875 -2.234375 9.375 -2.425781 10.4375 -2.8125 C 11.507812 -3.207031 12.457031 -3.796875 13.28125 -4.578125 C 14.101562 -5.359375 14.734375 -6.289062 15.171875 -7.375 C 15.609375 -8.46875 15.828125 -9.609375 15.828125 -10.796875 C 15.828125 -12.359375 15.476562 -13.773438 14.78125 -15.046875 C 14.082031 -16.316406 13.085938 -17.347656 11.796875 -18.140625 C 10.515625 -18.941406 8.785156 -19.34375 6.609375 -19.34375 L 4.578125 -19.34375 L 4.578125 -2.234375 Z M 6.875 -2.234375 "/></g></g></g><g fill="#a8781d" fill-opacity="1"><g transform="translate(284.896245, 179.493358)"><g><path d="M 10.140625 -22.609375 L 19.84375 0 L 17.171875 0 L 14.625 -6.125 L 5.40625 -6.125 L 2.8125 0 L 0.171875 0 Z M 6.390625 -8.359375 L 13.6875 -8.359375 L 10.078125 -17 Z M 3.890625 -21.578125 Z M 3.890625 -21.578125 "/></g></g></g></svg>
